WebSitesTrening/Creative/dist/img/icons/google-icon.svg

<svg xmlns="http://www.w3.org/2000/svg" width="15" height="15" viewBox="0 0 15 15"><g><g><path fill="#ff0036" d="M9.737 10.993c.025 1.682-1.731 3.147-4.546 3.147-2.47 0-4.54-1.103-4.54-2.682 0-2.385 1.714-3.154 4.184-3.154.27 0 .516-.007.771-.007-.338-.321-.61-.6-.61-1.087 0-.292.093-.568.225-.815-.134.009-.271.018-.412.018-2.029 0-3.21-1.4-3.21-3.157 0-1.719 1.798-3.26 3.954-3.26h4.25l-.949.959H7.738c.788.442 1.206 1.354 1.206 2.36 0 .923-.52 1.666-1.255 2.231-.718.552-.854.782-.854 1.25 0 .4.857.995 1.252 1.285 1.372 1.012 1.63 1.649 1.65 2.912zM5.63 5.711c1.087.03 1.711-.829 1.524-2.226C6.968 2.09 6.26 1.04 5.173 1.007c-1.087-.03-2.04.942-1.85 2.338.186 1.397 1.22 2.333 2.308 2.366zm2.553 5.43c0-.133-.004-.27-.051-.393-.545-1.334-2.298-1.334-2.883-1.334-1.572 0-2.871.58-2.871 1.673 0 1.112 1.159 2.02 2.763 2.02 2.256 0 3.042-.85 3.042-1.966zm6.812-8.457H12.95V4.71h-.68V2.684H10.23V2.02h2.042V-.002h.679V2.02h2.045z"/></g></g></svg>

<svg xmlns="http://www.w3.org/2000/svg" viewBox="0 0 15 15">
  <path fill="#ff0036" d="M9.74 11c.02 1.68-1.73 3.14-4.55 3.14-2.47 0-4.54-1.1-4.54-2.68 0-2.39 1.71-3.16 4.18-3.16h.78C5.27 7.98 5 7.7 5 7.2c0-.3.09-.57.22-.81l-.41.01c-2.03 0-3.21-1.4-3.21-3.15C1.6 1.54 3.4 0 5.55 0H9.8l-.95.96H7.74c.79.44 1.2 1.35 1.2 2.36 0 .92-.52 1.66-1.25 2.23-.72.55-.85.78-.85 1.25 0 .4.85 1 1.25 1.28C9.46 9.1 9.72 9.73 9.74 11zM5.63 5.7c1.09.03 1.71-.83 1.52-2.22-.18-1.4-.89-2.45-1.98-2.48-1.08-.03-2.04.94-1.85 2.33.19 1.4 1.22 2.34 2.31 2.37zm2.55 5.43c0-.13 0-.27-.05-.4-.54-1.33-2.3-1.33-2.88-1.33-1.57 0-2.87.58-2.87 1.68s1.16 2.02 2.76 2.02c2.26 0 3.04-.85 3.04-1.97zM15 2.68h-2.05v2.03h-.68V2.68h-2.04v-.66h2.04V0h.68v2.02H15z"/>
</svg>
